resources/themes/cura/icons/material_selected.svg

<?xml version="1.0" encoding="UTF-8"?>
<svg width="30px" height="26px" viewBox="0 0 30 26" version="1.1" xmlns="http://www.w3.org/2000/svg" xmlns:xlink="http://www.w3.org/1999/xlink">
    <!-- Generator: Sketch 43.1 (39012) - http://www.bohemiancoding.com/sketch -->
    <title>Artboard 3 Copy</title>
    <desc>Created with Sketch.</desc>
    <defs></defs>
    <g id="Feature-apply-material-to-model" stroke="none" stroke-width="1" fill="none" fill-rule="evenodd">
        <g id="Artboard-3-Copy" fill="#FFFFFF">
            <g id="Group-20-Copy">
                <path d="M13,26 C5.82029825,26 0,20.1797017 0,13 C0,5.82029825 5.82029825,0 13,0 C20.1797017,0 26,5.82029825 26,13 C26,20.1797017 20.1797017,26 13,26 Z M13,17.3333333 C15.3932339,17.3333333 17.3333333,15.3932339 17.3333333,13 C17.3333333,10.6067661 15.3932339,8.66666667 13,8.66666667 C10.6067661,8.66666667 8.66666667,10.6067661 8.66666667,13 C8.66666667,15.3932339 10.6067661,17.3333333 13,17.3333333 Z M13,19.0666667 C12.5180162,19.0666667 12.1333333,19.4511082 12.1333333,19.9253409 L12.1333333,23.4079924 C12.1333333,23.8758215 12.5213532,24.2666667 13,24.2666667 C13.4819838,24.2666667 13.8666667,23.8822251 13.8666667,23.4079924 L13.8666667,19.9253409 C13.8666667,19.4575118 13.4786468,19.0666667 13,19.0666667 Z M13,1.73333333 C12.5180162,1.73333333 12.1333333,2.11777489 12.1333333,2.59200757 L12.1333333,6.07465909 C12.1333333,6.54248818 12.5213532,6.93333333 13,6.93333333 C13.4819838,6.93333333 13.8666667,6.54889178 13.8666667,6.07465909 L13.8666667,2.59200757 C13.8666667,2.12417849 13.4786468,1.73333333 13,1.73333333 Z M8.62311447,8.62311447 C8.9639285,8.28230044 8.96409912,7.73844737 8.62876597,7.40311422 L6.16615947,4.94050771 C5.83535435,4.60970259 5.2846136,4.60770482 4.94615921,4.94615921 C4.60534518,5.28697324 4.60517456,5.83082632 4.94050771,6.16615947 L7.40311422,8.62876597 C7.73391934,8.95957109 8.28466009,8.96156886 8.62311447,8.62311447 Z M20.7564478,20.7564478 C21.0972618,20.4156338 21.0974325,19.8717807 20.7620993,19.5364476 L18.2994928,17.073841 C17.9686877,16.7430359 17.4179469,16.7410382 17.0794925,17.0794925 C16.7386785,17.4203066 16.7385079,17.9641596 17.073841,18.2994928 L19.5364476,20.7620993 C19.8672527,21.0929044 20.4179934,21.0949022 20.7564478,20.7564478 Z M18.2994928,8.62876597 L20.7620993,6.16615947 C21.0974325,5.83082632 21.0972618,5.28697324 20.7564478,4.94615921 C20.4179934,4.60770482 19.8672527,4.60970259 19.5364476,4.94050771 L17.073841,7.40311422 C16.7385079,7.73844737 16.7386785,8.28230044 17.0794925,8.62311447 C17.4179469,8.96156886 17.9686877,8.95957109 18.2994928,8.62876597 Z M4.94615921,20.7564478 C5.2846136,21.0949022 5.83535435,21.0929044 6.16615947,20.7620993 L8.62876597,18.2994928 C8.96409912,17.9641596 8.9639285,17.4203066 8.62311447,17.0794925 C8.28466009,16.7410382 7.73391934,16.7430359 7.40311422,17.073841 L4.94050771,19.5364476 C4.60517456,19.8717807 4.60534518,20.4156338 4.94615921,20.7564478 Z M6.93333333,13 C6.93333333,12.5180162 6.54889178,12.1333333 6.07465909,12.1333333 L2.59200757,12.1333333 C2.12417849,12.1333333 1.73333333,12.5213532 1.73333333,13 C1.73333333,13.4819838 2.11777489,13.8666667 2.59200757,13.8666667 L6.07465909,13.8666667 C6.54248818,13.8666667 6.93333333,13.4786468 6.93333333,13 Z M24.2666667,13 C24.2666667,12.5180162 23.8822251,12.1333333 23.4079924,12.1333333 L19.9253409,12.1333333 C19.4575118,12.1333333 19.0666667,12.5213532 19.0666667,13 C19.0666667,13.4819838 19.4511082,13.8666667 19.9253409,13.8666667 L23.4079924,13.8666667 C23.8758215,13.8666667 24.2666667,13.4786468 24.2666667,13 Z" id="Combined-Shape-Copy-58" transform="translate(13.000000, 13.000000) rotate(-90.000000) translate(-13.000000, -13.000000) "></path>
                <path d="M13,26 L14.0002268,26 C22.8445163,26 30,18.836556 30,10 L29,10 C29,18.2842712 22.2826941,25 14.0005091,25 L13,25 L13,26 Z" id="Combined-Shape-Copy-59"></path>
            </g>
        </g>
    </g>
</svg>

<?xml version="1.0" encoding="UTF-8" standalone="no"?>
<svg
   xmlns:dc="http://purl.org/dc/elements/1.1/"
   xmlns:cc="http://creativecommons.org/ns#"
   xmlns:rdf="http://www.w3.org/1999/02/22-rdf-syntax-ns#"
   xmlns:svg="http://www.w3.org/2000/svg"
   xmlns="http://www.w3.org/2000/svg"
   xmlns:sodipodi="http://sodipodi.sourceforge.net/DTD/sodipodi-0.dtd"
   xmlns:inkscape="http://www.inkscape.org/namespaces/inkscape"
   width="30"
   height="30"
   viewBox="0 0 30 30"
   version="1.1"
   id="svg4595"
   sodipodi:docname="material_selected.svg"
   inkscape:version="0.92.1 r">
  <metadata
     id="metadata4599">
    <rdf:RDF>
      <cc:Work
         rdf:about="">
        <dc:format>image/svg+xml</dc:format>
        <dc:type
           rdf:resource="http://purl.org/dc/dcmitype/StillImage" />
        <dc:title>Artboard 3 Copy</dc:title>
      </cc:Work>
    </rdf:RDF>
  </metadata>
  <sodipodi:namedview
     pagecolor="#ffffff"
     bordercolor="#666666"
     borderopacity="1"
     objecttolerance="10"
     gridtolerance="10"
     guidetolerance="10"
     inkscape:pageopacity="0"
     inkscape:pageshadow="2"
     inkscape:window-width="2502"
     inkscape:window-height="1411"
     id="namedview4597"
     showgrid="false"
     inkscape:pagecheckerboard="true"
     inkscape:zoom="23.442308"
     inkscape:cx="18.780195"
     inkscape:cy="17.941232"
     inkscape:window-x="0"
     inkscape:window-y="0"
     inkscape:window-maximized="0"
     inkscape:current-layer="svg4595" />
  <!-- Generator: Sketch 43.1 (39012) - http://www.bohemiancoding.com/sketch -->
  <title
     id="title4584">Artboard 3 Copy</title>
  <desc
     id="desc4586">Created with Sketch.</desc>
  <defs
     id="defs4588" />
  <g
     id="Feature-apply-material-to-model"
     style="fill:none;fill-rule:evenodd;stroke:none;stroke-width:1"
     transform="translate(0,2)">
    <g
       id="Artboard-3-Copy"
       style="fill:#ffffff">
      <g
         id="Group-20-Copy">
        <path
           d="M 13,26 C 5.8202982,26 0,20.179702 0,13 0,5.8202982 5.8202982,0 13,0 c 7.179702,0 13,5.8202982 13,13 0,7.179702 -5.820298,13 -13,13 z m 0,-8.666667 c 2.393234,0 4.333333,-1.940099 4.333333,-4.333333 0,-2.393234 -1.940099,-4.3333333 -4.333333,-4.3333333 -2.393234,0 -4.3333333,1.9400993 -4.3333333,4.3333333 0,2.393234 1.9400993,4.333333 4.3333333,4.333333 z m 0,1.733334 c -0.481984,0 -0.866667,0.384441 -0.866667,0.858674 v 3.482651 c 0,0.467829 0.38802,0.858675 0.866667,0.858675 0.481984,0 0.866667,-0.384442 0.866667,-0.858675 v -3.482651 c 0,-0.467829 -0.38802,-0.858674 -0.866667,-0.858674 z M 13,1.7333333 c -0.481984,0 -0.866667,0.3844416 -0.866667,0.8586743 v 3.4826515 c 0,0.4678291 0.38802,0.8586742 0.866667,0.8586742 0.481984,0 0.866667,-0.3844415 0.866667,-0.8586742 V 2.5920076 C 13.866667,2.1241785 13.478647,1.7333333 13,1.7333333 Z M 8.6231145,8.6231145 C 8.9639285,8.2823004 8.9640991,7.7384474 8.628766,7.4031142 L 6.1661595,4.9405077 C 5.8353543,4.6097026 5.2846136,4.6077048 4.9461592,4.9461592 4.6053452,5.2869732 4.6051746,5.8308263 4.9405077,6.1661595 L 7.4031142,8.628766 C 7.7339193,8.9595711 8.2846601,8.9615689 8.6231145,8.623116 Z M 20.756448,20.756448 c 0.340814,-0.340814 0.340984,-0.884667 0.0057,-1.22 l -2.462606,-2.462607 c -0.330805,-0.330805 -0.881546,-0.332803 -1.220001,0.0057 -0.340814,0.340815 -0.340984,0.884668 -0.0057,1.220001 l 2.462607,2.462606 c 0.330805,0.330805 0.881545,0.332803 1.22,-0.0057 z M 18.299493,8.628766 20.762099,6.1661595 c 0.335333,-0.3353332 0.335163,-0.8791863 -0.0057,-1.2200003 -0.338455,-0.3384544 -0.889195,-0.3364566 -1.22,-0.00565 l -2.462607,2.4626065 c -0.335333,0.3353332 -0.335163,0.8791862 0.0057,1.2200003 0.338455,0.3384544 0.889196,0.3364566 1.220001,0.00565 z M 4.9461592,20.756448 c 0.3384544,0.338454 0.8891951,0.336456 1.2200003,0.0057 L 8.628766,18.299493 C 8.9640991,17.96416 8.9639285,17.420307 8.6231145,17.079492 8.2846601,16.741038 7.7339193,16.743036 7.4031142,17.073841 l -2.4626065,2.462607 c -0.3353331,0.335333 -0.3351625,0.879186 0.00565,1.22 z M 6.9333333,13 c 0,-0.481984 -0.3844415,-0.866667 -0.8586742,-0.866667 H 2.5920076 c -0.4678291,0 -0.8586743,0.38802 -0.8586743,0.866667 0,0.481984 0.3844416,0.866667 0.8586743,0.866667 h 3.4826515 c 0.4678291,0 0.8586742,-0.38802 0.8586742,-0.866667 z m 17.3333337,0 c 0,-0.481984 -0.384442,-0.866667 -0.858675,-0.866667 h -3.482651 c -0.467829,0 -0.858674,0.38802 -0.858674,0.866667 0,0.481984 0.384441,0.866667 0.858674,0.866667 h 3.482651 c 0.467829,0 0.858675,-0.38802 0.858675,-0.866667 z"
           id="Combined-Shape-Copy-58"
           transform="rotate(-90,13,13)"
           inkscape:connector-curvature="0" />
        <path
           d="m 13,26 h 1.000227 C 22.844516,26 30,18.836556 30,10 h -1 c 0,8.284271 -6.717306,15 -14.999491,15 H 13 Z"
           id="Combined-Shape-Copy-59"
           inkscape:connector-curvature="0" />
      </g>
    </g>
  </g>
</svg>
